X: 1
T: Kylebrack Rambler, The
M: 4/4
L: 1/8
R: reel
K: Amix
AE E2 AEcE | AE E2 GEDE | AE E2 A3 B | cdec d2 cd |
ea a2 agef | gdeg dBGB | AGED EA A2 |1 cedB A3 B :|2 cedB ABcd ||
|: e2 de cA A2 | a3 g efgf | g2 dg Bgdg |gaba gede |
a2 c'a be e2 | ^ge e2 Be e2 | dB B2  GA (3Bcd |1 gedB ABcd :|2 gedB A2 (3Bcd ||
|: eA A2 EA A2 | ae e2 agef | g2 fa gedB | Ggfa gedB |
cA A2 EA A2 | ae e2 agef | g2 fa  gedB |1 GBdB A2 (3Bcd :|2 GBdB A3 B ||
